X:1
T:O’Carroll’s Party
M:6/8
L:1/8
R:Jig
B:A.S. Bowman – “J.W. Pepper Collection of Five Hundred Reels, Jigs,
B:etc.” (Phila., 1908, No. 162, p. 34)
Z:AK/Fiddler’s Companion
K:D
{c}d|A^GA FAB|cde f2 (e/f/)|gfg afe|def e2 {c}d|
A^GA FAB|cdf a2b|agf gec|ABc d2:|
|:e|fz(d/c/ d)ef|gz(e/^d e)fg|afe dAF|BEE E2A|
fz(e/d/ d)ef|gz(e/^d/ e)fg|afd ABc|dAF D2:|]

